X:1
T:La Belle Américaine
T:LA BELLE AMÉRICAINE
L:1/8
Q:1/4=144
M:4/4
K:Bb
V:1 bass nm="Euphonium" snm="Euph."
V:1
"^Allegro"!f! B,4 F,3 G,/A,/ | B,(B,/A,/ B,/C/D/E/ F3) D | C2 F,>F, A,2 C2 | D4 B,4 | %4
 B,4 F,3 G,/A,/ | B,(B,/A,/ B,/C/D/E/ F3) D | C2 A,>A, B,2 G,2 | F,2 A,>C F2!p! F,2 | E3 D C2 F,2 | %9
 D3 C B,2 F,2 | E3 D C2 F2 | D6 D>D | D4 C4 | D2 D>D D2 D2 | D4 G4 | F6 F2 || %16
"^Candenza" F,>G, A,/B,/C/B,/ A,>B, C/D/E/D/ C>D E/F/G/F/ ECA,F, E,2 C,2 !fermata!A,,2 || %17
[Q:1/4=114]"^Moderato" B,,2 z2 z4 | z4 z2!p! (D,E,) | (F,2 D2) D2 (CB,) | (G,2 B,2) B,2 (A,G,) | %21
 (F,2 B,2) C2 (DB,) | C4- C2!<(! (D,E,) | (F,2!<)! D2) D2 (CB,) | (G,2 B,2)!>(! B,2 (A,G,)!>)! | %25
!<(! (F,2 B,C)!<)!!>(! (DB,) C2!>)! | B,4- B,2 z2 ||!p! F,4 G, B,3 | C4 D B,3 | %29
!<(! D4 G,2 B,2!<)! |!>(! C4 C2!>)! (D,E,) | (F,2 D2) D2 (CB,) | (G,2 B,2) B,2 (A,G,) | %33
 (F,2 B,C) (DB,){!fermata!D} !fermata!C>B, | B,4- B,2 z2 || B,4- B,>A,B,>C | B,2 A,4 C2 | %37
 G,4- G,>^F,G,>A, | G,2 F,4 D,>F, | B,3 B, =B,3 B, | C4- C>B,A,>G, | F,>D,F,>B, A,>F,A,>C | %42
 B,2 B,>B, B,2 ||!p! D,>E, | F,(B,,/A,,/) B,,/D,/F,/B,/ (D3/2E/4D/4 C)B, | %45
 G,/(E,/D,/E,/) G,,/B,,/E,/G,/ (B,3/2C/4B,/4 A,)G, | %46
 F,/(D,/^C,/D,/) B,/(F,/=E,/F,/) D/(B,/A,/B,/) F>D | %47
 C(F,/=E,/ F,/)G,/A,/B,/ (C/D/)C/B,/ A,/G,/F,/_E,/ | D,(B,,/A,,/) B,,/D,/F,/B,/ (D3/2E/4D/4 C)B, | %49
 G,/(E,/D,/E,/) B,/G,/E/B,/ G>B, (A,/C/)B,/G,/ | %50
 (F,/=E,/)G,/F,/ D,/F,/B,/D/ (F/D/)B,/G,/ (F,/_E,/)C,/F,/ | (B,,/A,,/)B,,/D,/ F,/D,/D/F,/ B,2 z2 || %52
 (DF/)E/ D/C/B,/A,/ (G,G/)F/ E/D/C/B,/ | (A,C/)B,/ A,/G,/F,/E,/ (D,F/)E/ D/C/B,/A,/ | %54
 (G,B,/)A,/ G,/F,/=E,/D,/ (C,=E/)D/ C/B,/A,/G,/ | %55
"^rit." (F,/4G,/4F,/4=E,/4) F,/G,/ A,/B,/C/D/ E2"^a tempo" D,>E, | %56
 F,/(B,,/A,,/B,,/) D,/F,/B,/D/ F>E D/C/B,/A,/ | G,/(E,/D,/E,/) B,/G,/E/B,/ G>C (B,/A,/)(A,/G,/) | %58
 F,/D,/B,/F,/ D/B,/F- F/E/C/A,/ F,/E,/C,/F,/ | B,,>A,, B,,/D,/F,/D/ B,2 z2 || F>GE>F D2 B,>C | %61
 D>EC>D B,2 G,>A, | B,>B,A,>G, F,>B,D>G | F2 A,2 B,2 z2 | %64
 .F,(3(D,/E,/=E,/ .F,)(3(F,/G,/A,/ .B,)(3(B,/C/^C/ .D)(3(B,/A,/_A,/ | %65
 .G,)(3(E,/F,/^F,/ .G,)(3(G,/_A,/=A,/ .B,)(3(B,/C/D/ .E)(3(B,/A,/G,/ | %66
 .F,)(3(F,/G,/A,/ .B,)(3(B,/C/^C/ .D)(3(D/E/=E/ .F)(3(F/_E/D/ | %67
 .C)(3(=B,/C/D/ .C)(3(=E,/F,/G,/ F,)!fermata!F,, D,>E, | %68
 .F,(3(D,/E,/=E,/ .F,)(3(F,/G,/A,/ .B,)(3(B,/C/^C/ .D)(3(=C/B,/A,/ | %69
 .G,)(3(E,/F,/^F,/ .G,)(3(G,/_A,/=A,/ .B,)(3(B,/C/D/ .E)(3(G/F/E/ | %70
 .D)(3(F,/=E,/G,/ .F,)(3(F/_E/D/ .C)(3(F,/=E,/G,/ .F,)(3(_E/D/C/ | %71
 .B,)!8va(!(3(F/G/A/ .B)!8va)! (3(F,,/G,,/A,,/ B,,) z z2 || %72
 (3(F,/G,/F,/)D,/E,/ F,/(B,/C/B,/) (3(G,/A,/G,/)E,/F,/ G,/(B,/C/B,/) | %73
 (3(A,/B,/A,/)F,/G,/ A,/(C/D/C/) (3(B,/C/B,/)D,/F,/ B,/(D/E/D/) | %74
 (3(B,/C/B,/)G,/A,/ B,/(D/=E/D/) (3(C/D/C/(3B,/C/B,/(3A,/B,/A,/(3G,/A,/G,/ | %75
"^rit." F,>)G, A,/B,/C/D/"^a tempo" E2 D,>E, | %76
 .F,(3(D,/E,/=E,/ .F,)(3(F,/G,/A,/ .B,)(3(B,/C/^C/ .D)(3=C/B,/A,/ | %77
 .G,(3(E,/F,/^F,/ .G,)(3(G,/_A,/=A,/ .B,)(3(B,/C/D/ .E)(3G/F/E/ | %78
 .D(3(F,/=E,/G,/ .F,)(3(F/E/D/ .C)(3(F,/E,/G,/ .F,)(3E/D/C/ | %79
 .B,!8va(!(3(F/G/A/ .B)!8va)! (3([F,,,F,,]/[G,,,G,,]/[A,,,A,,]/ [B,,,B,,]) z z2 || F,4 G, B,3 | %81
 C4 D B,3 | D4 G,2 B,2 | C6 F,2 | F,4 G, B,3 | C4 D B,3 | B,3 =B, C2 ^C2 | D2 D>D !fermata!D2 z2 || %88
[M:3/4] B,D/D/ DD DD | B,D/D/ DD DD |!mf! F,>=E,G,>F, (D,/F,/)B,/C/ | %91
 D !>!D2 (3(C/D/C/(3B,/C/B,/(3A,/B,/A,/ | G,) !>!G,2 (B,/A,/ C/)B,/A,/G,/ | (F,2 D,4) | %94
!<(! F,(3(=E,/F,/G,/!<)! F,)D !>!B,2 | B,(3(A,/B,/C/ B,)G,/A,/ B,/C/D/=E/ | %96
 F(3(=E/F/G/ F)(3(=E,/F,/G,/ F,)F,, | F,>=E,G,>F, (D,/F,/)B,/C/ | %98
 D !>!D2 (3(C/D/C/(3B,/C/B,/(3A,/B,/A,/ | G,/)E,/G,/B,/ E>D (C/B,/)A,/G,/ | (F,4 D,2) | %101
 =E,/C,/G,/E,/ C(3(=B,/C/D/ C2) |!<(! C/D/=E/F/ G/!<)!!>(!F/E/D/ C/B,/A,/G,/!>)! | %103
 F,F,/F,/ F,F, F,F, | E>D C3 A, | B,>C D4 | %106
!p! (3(F,/G,/F,/)=E,/F,/ !>!A,/(F,/E,/F,/) !>!C/(F,/E,/F,/) | %107
 (3(F,/G,/F,/)=E,/F,/ !>!B,/(F,/E,/F,/) !>!D/(F,/E,/F,/) | E>D C3 A, | B,>C _D3 B, | %110
 (3(F,/G,/F,/)=E,/F,/ !>!B,/(F,/E,/F,/) D!fermata!C | %111
 !>!B,/(F,/=E,/F,/) !>!B,/(F,/E,/F,/) !>!D/(F,/E,/F,/) | %112
 !>!B,/(F,/=E,/F,/) !>!B,/(F,/E,/F,/) !>!D/(F,/E,/F,/) | %113
 !>!C/(F,/=E,/F,/) !>!C/(F,/E,/F,/) !>!E/(F,/E,/F,/) | %114
 !>!A,/(F,/=E,/F,/) !>!A,/(F,/E,/F,/) !>!C/(F,/E,/F,/) | %115
 !>!B,/(F,/=E,/F,/) !>!B,/(F,/E,/F,/) !>!D/(F,/E,/F,/) | %116
 !>!C/(F,/=E,/F,/) !>!C/(F,/E,/F,/) !>!E/(F,/E,/F,/) | %117
 !>!A,/(F,/=E,/F,/) !>!A,/(F,/E,/F,/) !>!C/(F,/E,/F,/) | %118
 !>!B,/(B,/A,/B,/) !>!C/(B,/A,/B,/) !>!_A,/(B,/=A,/B,/) | %119
 !>!G,/(C/=B,/C/) !>!D/(C/B,/C/) !>!_B,/(C/=B,/C/) | %120
 !>!A,/(D/^C/D/) !>!E/(D/C/D/) !>!=C/(D/^C/D/) | !>!B,/(D/^C/D/) !>!=C/(E/D/E/) !>!A,/(C/=B,/C/) | %122
 A,F/F/ DF DB, | F,/G,/A,/B,/ C/D/E/=E/ FA, | %124
 !>!B,/(F,/=E,/F,/) !>!D/(F,/E,/F,/) !>!C/(F,/E,/F,/) | %125
 !>!B,/(F,/=E,/F,/) !>!D/(F,/E,/F,/) !>!C/(F,/E,/F,/) | %126
 !>!B,/(F,/=E,/F,/) !>!D/(F,/E,/F,/) !>!C/(F,/E,/F,/) | %127
 !>!B,/(F,/=E,/F,/) !>!D/(F,/E,/F,/) !>!C/(F,/E,/F,/) | B,3!f! B,,/B,,/ D,F, | B,D,F,B,DF | %130
"^(8va)" !fermata!B,6 |] %131

